app/images/4.svg

<svg width="497" height="497" fill="none" xmlns="http://www.w3.org/2000/svg"><path d="M248.082 0C111.07 0 0 111.058 0 248.082c0 137 111.07 248.07 248.082 248.07 137.006 0 248.076-111.07 248.076-248.07C496.158 111.058 385.088 0 248.082 0Z" fill="url(#a)"/><g filter="url(#b)"><path d="M324.983 279.889c-4.541-2.051-10.572-3.076-18.091-3.076h-6.299V163.434c0-16.992-7.423-25.488-22.266-25.488-4.591 0-8.521 1.538-11.792 4.614-3.273 3.076-7.448 8.034-12.524 14.868l-77.637 103.857a1784.678 1784.678 0 0 0-5.42 7.178 112.065 112.065 0 0 0-4.248 6.079c-1.369 2.101-2.394 4.102-3.076 6.006-.685 1.904-1.025 3.786-1.025 5.64 0 7.228 2.318 12.941 6.958 17.139 4.637 4.2 11.595 6.299 20.874 6.299h73.535v27.246c0 7.324 1.685 12.868 5.054 16.626 3.369 3.758 7.787 5.64 13.257 5.64 5.566 0 10.009-1.831 13.33-5.493 3.319-3.662 4.98-9.251 4.98-16.772v-27.246h8.936c7.42 0 12.987-1.293 16.699-3.882 3.71-2.586 5.566-6.713 5.566-12.378.001-6.934-2.27-11.427-6.811-13.478Zm-61.01-3.076h-62.988l62.988-85.107v85.107Z" fill="#fff"/></g><defs><linearGradient id="a" x1="248.079" y1="0" x2="0" y2="801.997" gradientUnits="userSpaceOnUse"><stop stop-color="#FFB502"/><stop offset="1" stop-color="#FF4E53"/></linearGradient><filter id="b" x="162.605" y="131.946" width="189.189" height="241.192" filterUnits="userSpaceOnUse" color-interpolation-filters="sRGB"><feFlood flood-opacity="0" result="BackgroundImageFix"/><feColorMatrix in="SourceAlpha" values="0 0 0 0 0 0 0 0 0 0 0 0 0 0 0 0 0 0 127 0" result="hardAlpha"/><feOffset dx="10" dy="4"/><feGaussianBlur stdDeviation="5"/><feComposite in2="hardAlpha" operator="out"/><feColorMatrix values="0 0 0 0 0 0 0 0 0 0 0 0 0 0 0 0 0 0 0.25 0"/><feBlend in2="BackgroundImageFix" result="effect1_dropShadow_1561_2438"/><feBlend in="SourceGraphic" in2="effect1_dropShadow_1561_2438" result="shape"/></filter></defs></svg>

<svg width="497" height="497" viewBox="0 0 497 497" fill="none" xmlns="http://www.w3.org/2000/svg">
<path d="M248.082 0C111.07 0 0 111.058 0 248.082C0 385.082 111.07 496.152 248.082 496.152C385.088 496.152 496.158 385.082 496.158 248.082C496.158 111.058 385.088 0 248.082 0Z" fill="url(#paint0_linear_1561_2438)"/>
<g filter="url(#filter0_d_1561_2438)">
<path d="M324.983 279.889C320.442 277.838 314.411 276.813 306.892 276.813H300.593V163.434C300.593 146.442 293.17 137.946 278.327 137.946C273.736 137.946 269.806 139.484 266.535 142.56C263.262 145.636 259.087 150.594 254.011 157.428L176.374 261.285C174.225 264.118 172.419 266.511 170.954 268.463C169.489 270.418 168.072 272.443 166.706 274.542C165.337 276.643 164.312 278.644 163.63 280.548C162.945 282.452 162.605 284.334 162.605 286.188C162.605 293.416 164.923 299.129 169.563 303.327C174.2 307.527 181.158 309.626 190.437 309.626H263.972V336.872C263.972 344.196 265.657 349.74 269.026 353.498C272.395 357.256 276.813 359.138 282.283 359.138C287.849 359.138 292.292 357.307 295.613 353.645C298.932 349.983 300.593 344.394 300.593 336.873V309.627H309.529C316.949 309.627 322.516 308.334 326.228 305.745C329.938 303.159 331.794 299.032 331.794 293.367C331.795 286.433 329.524 281.94 324.983 279.889ZM263.973 276.813H200.985L263.973 191.706V276.813Z" fill="white"/>
</g>
<defs>
<filter id="filter0_d_1561_2438" x="162.605" y="131.946" width="189.189" height="241.192" filterUnits="userSpaceOnUse" color-interpolation-filters="sRGB">
<feFlood flood-opacity="0" result="BackgroundImageFix"/>
<feColorMatrix in="SourceAlpha" type="matrix" values="0 0 0 0 0 0 0 0 0 0 0 0 0 0 0 0 0 0 127 0" result="hardAlpha"/>
<feOffset dx="10" dy="4"/>
<feGaussianBlur stdDeviation="5"/>
<feComposite in2="hardAlpha" operator="out"/>
<feColorMatrix type="matrix" values="0 0 0 0 0 0 0 0 0 0 0 0 0 0 0 0 0 0 0.25 0"/>
<feBlend mode="normal" in2="BackgroundImageFix" result="effect1_dropShadow_1561_2438"/>
<feBlend mode="normal" in="SourceGraphic" in2="effect1_dropShadow_1561_2438" result="shape"/>
</filter>
<linearGradient id="paint0_linear_1561_2438" x1="248.079" y1="0" x2="2.24768e-05" y2="801.997" gradientUnits="userSpaceOnUse">
<stop stop-color="#FFB502"/>
<stop offset="1" stop-color="#FF4E53"/>
</linearGradient>
</defs>
</svg>
